!!!COM: Scarlatti, Domenico
!!!CDT: 1685-1757
!!!OTL: Sonata in G major, L.349, K.146
!!!SCT: K. 146
!!!SCT: L. 349
!!!OMD: Allegretto ([eighth]=144)
**kern	**kern	**dynam
*staff2	*staff1	*staff1/2
*Icemba	*Icemba	*
*I"L.349 (K.146)	*I"L.349 (K.146)	*
*>[A,A,B,B]	*>[A,A,B,B]	*>[A,A,B,B]
*>norep[A,B]	*>norep[A,B]	*>norep[A,B]
*>A	*>A	*>A
*clefG2	*clefG2	*
*k[f#]	*k[f#]	*
*G:	*G:	*
*M3/8	*M3/8	*
*MM72	*MM72	*
=1-	=1-	=1-
(8g 8bL	(16ddLLM	f
.	32ccL	.
.	32ddJJJ	.
8cc')	8ee'L)	.
8a'J	8ff#'J	.
=2	=2	=2
8g'	32r	.
.	(32ggLLL	.
.	32dd	.
.	32bJJJ	.
*clefF4	*	*
32r	8g')	.
(32gLLL	.	.
32d	.	.
32BJJJ	.	.
!LO:TX:b:i:t=m.d.	!	!
8GG')	8r	.
*clefG2	*	*
!!LO:LB:g=z
=3	=3	=3
(8g 8bL	(16ddLLM	p
.	32ccL	.
.	32ddJJJ	.
8cc')	8eeL)	.
8a'J	8ff#'J	.
=4	=4	=4
8g'	(32ggLLL	.
.	32bb	.
.	32gg	.
.	32ddJJJ	.
*clefF4	*	*
32r	8b')	.
(32gLLL	.	.
32d	.	.
32BJJJ	.	.
!LO:TX:b:i:t=m.d.	!	!
8GG')	8r	.
*clefG2	*	*
=5	=5	=5
(16bLL	(16ddLL	p
16g	16bb	.
16a	16cc	.
16f#J	16aa	.
8gJ	16b	.
.	16ggJJ	.
!!LO:LB:g=z
=6	=6	=6
!	!	!LO:DY:rj
8d')	32aLLL	mf
.	32ff#	.
.	32dd	.
.	32aJJJ	.
*clefF4	*	*
32r	8f#')	.
(32dLLL	.	.
32A	.	.
32F#JJJ	.	.
!LO:TX:b:i:t=m.d.	!	!
8DD)	8r	.
=7	=7	=7
8d (8f#L	(16aLLM<	f
.	32gL	.
.	32aJJJ	.
8g')	8b'L>)	.
8e'J	8cc#'J	.
=8	=8	=8
8d'	32r	.
.	(32ddLLL	.
.	32a	.
.	32f#JJJ	.
32r	8d')	.
(32dLLL	.	.
32A	.	.
32F#JJJ	.	.
!LO:TX:b:i:t=m.d.	!	!
8DD')	8r	.
*clefG2	*	*
!!LO:LB:g=z
=9	=9	=9
!	!	!LO:DY:rj
(16f#LL	(16aLL	p
16d	16dd	.
16g	16b	.
16e	16ee	.
16a	16cc#	.
16f#JJ	16ff#JJ	.
=10	=10	=10
16bLL>	16ddLL	.
16g	16gg	.
16cc#	16ee	.
16a	16aa	.
16dd	16ff#	.
16cc#JJ	16eeJJ	.
=11	=11	=11
16bLL	16ggLL	.
16a	16ff#	.
16g	16ee	.
16a	16ff#	.
16b	16ee	.
16gJJ	16ddJJ	.
!!LO:LB:g=z
=12	=12	=12
16aLL	16aaLL	.
16cc#	16ee	.
16dd	16ffn	.
16ccn	16ee	.
16b-	16gg	.
16aJJ	16ffJJ	.
=13	=13	=13
16gLL	16bb-LL	<
16b-	16cc#	.
16a	16ffn	.
16g	16ee	.
16fn	16dd	.
16eJJ	16cc#JJ	.
*clefF4	*	*
=14	=14	=14
16dLL	16ddLL	.
16c#	16aa	.
16Bn	16gg	.
16A	16ff#X	.
16G	16ee	.
16BJJ	16ddJJ)	.
!!LO:LB:g=z
=15	=15	=15
!	!	!LO:DY:rj
8AL	(8cc#Lm	mf
8E	16bL	.
.	16cc#J	.
8AAJ)	8a'J)	.
=16	=16	=16
4.ryy	(32g#LLL	p <
.	32aJJJ	.
.	32g#LLL<	.
.	32aJJJ	.
.	32cc#LLL>	.
.	32ddJJJ	.
.	32cc#LLL	.
.	32ddJJJ	.
.	32dd#LLL>	.
.	32eeJJJ	.
.	32dd#LLL	.
.	32eeJJJ	[[
=17	=17	=17
*	*^	*
4.ryy	8ee 8ggnL	4.a^)	f >
.	8ddn' 8ff#'	.	.
.	8cc#' 8ee'J	.	]]
*	*v	*v	*
!!LO:LB:g=z
=18	=18	=18
4.ryy	(32g#LLL	p <
.	32aJJJ	.
.	32g#LLL<	.
.	32aJJJ	.
.	32cc#LLL>	.
.	32ddJJJ	.
.	32cc#LLL	.
.	32ddJJJ	.
.	32dd#LLL>	.
.	32eeJJJ	.
.	32dd#LLL	.
.	32eeJJJ	[[
=19	=19	=19
*	*^	*
4.ryy	8ff# 8aaL)	4.a^	f >
.	8ee' 8gg'	.	.
.	8ddn' 8ff#'J	.	]]
*	*v	*v	*
=20	=20	=20
4.ryy	(32g#LLL	p <
.	32aJJJ	.
.	32g#LLL<	.
.	32aJJJ	.
.	32cc#LLL>	.
.	32ddJJJ	.
.	32cc#LLL	.
.	32ddJJJ	.
.	32dd#LLL>	.
.	32eeJJJ	.
.	32dd#LLL	.
.	32eeJJJ	[[
!!LO:LB:g=z
=21	=21	=21
*	*^	*
4.ryy	8gg' 8bb'L)	[4.a^	f
.	8ff#' 8aa'	.	.
.	8ee' 8gg'J	.	.
=22	=22	=22	=22
4.ryy	8dd' 8ff#'	4.a]	.
.	(<16ddqq 16ff#qq	.	>
.	4cc#) 4eeM	.	]]
*	*v	*v	*
=23	=23	=23
4.ryy	(32c#LLL	p
.	32dJJJ	<
.	32c#LLL<	.
.	32dJJJ	.
.	32d#LLL	.
.	32eJJJ	.
.	32d#LLL<	.
.	32eJJJ	.
.	32f#LLL	.
.	32gJJJ	.
.	32f#LLL<	.
.	32gJJJ	.
!!LO:LB:g=z
=24	=24	=24
4.ryy	32g#LLL	.
.	32aJJJ	.
.	32g#LLL<	.
.	32aJJJ	.
.	32a#LLL	.
.	32bJJJ	.
.	32a#LLL<	.
.	32bJJJ	.
.	32cc#LLL>	.
.	32ddJJJ	.
.	32cc#LLL	.
.	32ddJJJ)	.
=25	=25	=25
!	!	!LO:DY:rj
(8gL	32r	f
.	(32bLLL	.
.	32bb	.
.	32aaJJJ	.
8a')	32ggLLL	.
.	32ff#	.
.	32ee	.
.	32ddJJJ	.
8A'J	32cc#LLL	.
.	32b	.
.	32a	.
.	32eeJJJ)	.
=26	=26	=26
([4D	32r	.
.	(32ddLLL	.
.	32cc#	.
.	32bJJJ	.
.	32aLLL	.
.	32g	.
.	32f#	.
.	32eJJJ	.
32DLLL]	8d')	.
32F#	.	.
32A	.	.
32dJJJ)	.	.
!!LO:LB:g=z
=27	=27	=27
4.ryy	(32c#LLL	p
.	32dJJJ	<
.	32c#LLL<	.
.	32dJJJ	.
.	32d#LLL	.
.	32eJJJ	.
.	32d#LLL<	.
.	32eJJJ	.
.	32f#LLL	.
.	32gJJJ	.
.	32f#LLL<	.
.	32gJJJ	.
=28	=28	=28
4.ryy	32g#LLL	.
.	32aJJJ	.
.	32g#LLL<	.
.	32aJJJ	.
.	32a#LLL	.
.	32bJJJ	.
.	32a#LLL<	.
.	32bJJJ	.
.	32cc#LLL>	.
.	32ddJJJ	.
.	32cc#LLL	.
.	32ddJJJ)	.
!!LO:LB:g=z
=29	=29	=29
!	!	!LO:DY:rj
(8gL	32r	f
.	(32bLLL	.
.	32bb	.
.	32aaJJJ	.
8a')	32ggLLL	.
.	32ff#	.
.	32ee	.
.	32ddJJJ	.
8A'J	32cc#LLL	.
.	32b	.
.	32a	.
.	32eeJJJ	.
=30	=30	=30
(32DLLL	8dd)	.
32F#	.	.
32A	.	.
32dJJJ)	.	.
8r	(32ff#LLL	.
.	32aa	.
.	32ff#	.
.	32ddJJJ	.
8r	32aLLL	.
.	32ff#	.
.	32dd	.
.	32aJJJ	.
!!LO:LB:g=z
=31	=31	=31
(32DLLL	8f#')	>
32F#	.	.
32A	.	.
32dJJJ)	.	.
8r	(32ddLLL	.
.	32ff#	.
.	32dd	.
.	32aJJJ	.
8r	32f#LLL	.
.	32dd	.
.	32a	.
.	32f#JJJ	.
=32	=32	=32
(32DLLL	8d')	.
32F#	.	.
32A	.	.
32dJJJ)	.	.
8r	(32aLLL	.
.	32dd	.
.	32a	.
.	32f#JJJ	.
8r	32dLLL	.
.	32a	.
.	32f#	.
.	32dJJJ	.
=33	=33	=33
4.ryy	4DD<^<)	p
.	8rD<	.
!!LO:LB:g=z
=34:|!|:	=34:|!|:	=34:|!|:
*>B	*>B	*>B
*^	*	*
(8f#L	4.d	(16aLLM<	f
.	.	32gL	.
.	.	32aJJJ	.
8g')	.	8b'L>)	.
8e'J	.	8cc#'J	.
*v	*v	*	*
=35	=35	=35
8d'	32r	.
.	(32ddLLL	.
.	32a	.
.	32f#JJJ	.
32r	8d')	.
(32dLLL	.	.
32A	.	.
32F#JJJ	.	.
!LO:TX:b:i:t=m.d.	!	!
8DD')	8r	.
=36	=36	=36
*^	*	*
(8f#L	4.d	(16aLLM<	p
.	.	32gL	.
.	.	32aJJJ	.
8g')	.	8b'L>)	.
8e'J	.	8cc#'J	.
*v	*v	*	*
!!LO:LB:g=z
=37	=37	=37
8d'	(32ddLLL	.
.	32ff#	.
.	32dd	.
.	32aJJJ	.
32r	8f#')	.
(32dLLL	.	.
32A	.	.
32F#JJJ	.	.
!LO:TX:b:i:t=m.d.	!	!
8DD')	8r	.
=38	=38	=38
(16dLL	(16ddLL	p <
16fn	16a	.
16e	16cc	.
16d	16b	.
16c	16a	.
16BJJ	16g#JJ)	[[
=39	=39	=39
8A')	32r	mf
.	(32aaLLL	.
.	32ee	.
.	32ccJJJ	.
32r	8a')	.
(32aLLL	.	.
32e	.	.
32cJJJ	.	.
!LO:TX:b:i:t=m.d.	!	!
8AA')	8r	.
*clefG2	*	*
!!LO:LB:g=z
=40	=40	=40
*^	*	*
!	!	!	!LO:DY:rj
(16ccLLM	4.a	(16eeLLm	f
32bL	.	32ddL	.
32ccJJJ	.	32eeJJJ	.
8dd'L)	.	8ff#'L)	.
8b'J	.	8gg#'J	.
*v	*v	*	*
=41	=41	=41
8a'	32r	.
.	(32aaLLL	.
.	32ee	.
.	32ccJJJ	.
*clefF4	*	*
32r	8a')	.
(32aLLL	.	.
32e	.	.
32cJJJ	.	.
!LO:TX:b:i:t=m.d.	!	!
8AA')	8r	.
=42	=42	=42
(16cLL	(16eeLL<	p <
16e	16g	.
16d	16b	.
16c	16a	.
16B	16g	.
16AJJ	16f#JJ)	[[
!!LO:LB:g=z
=43	=43	=43
8G')	32r	mf
.	(32ggLLL	.
.	32dd	.
.	32bJJJ	.
32r	8g')	.
(32gLLL	.	.
32d	.	.
32BJJJ	.	.
!LO:TX:b:i:t=m.d.	!	!
8GG')	8r	.
=44	=44	=44
!	!	!LO:DY:rj
(16BLL	(16dLL	p
16G	16g	.
16c	16e	.
16A	16a	.
16d	16f#	.
16BJJ	16bJJ	.
=45	=45	=45
16eLL	16gLL<	.
16c	16cc	.
16f#	16a	.
16d	16dd	.
16g	16b	.
16f#JJ	16aJJ	.
!!LO:LB:g=z
=46	=46	=46
16eLL	16ccLL<	.
16d	16b	.
16c	16a	.
16d	16b	.
16e	16a	.
16cJJ	16gJJ	.
=47	=47	=47
16dLL	16ddLL	.
16f#X	16a	.
16g	16b-	.
16fn	16a	.
16e-	16cc	.
16dJJ	16b-JJ	.
=48	=48	=48
16cLL	16ee-LL<	<
16e-	16f#X	.
16d	16b-	.
16c	16a	.
16B-	16g	.
16AJJ	16f#JJ	.
!!LO:LB:g=z
=49	=49	=49
16GLL	16gLL<	.
16F#	16dd	.
16En	16cc	.
16D	16bn	.
16C	16a	.
16EJJ	16gJJ)	.
=50	=50	=50
8DL	(8f#Lm	mf
8AA	16eL	.
.	16f#JJ	.
8DDJ)	8d')	.
=51	=51	=51
4.ryy	(>32c#LLL	p <
.	32dJJJ	.
.	32c#LLL<	.
.	32dJJJ	.
.	32f#LLL	.
.	32gJJJ	.
.	32f#LLL<	.
.	32gJJJ	.
.	32g#LLL	.
.	32aJJJ	.
.	32g#LLL<	.
.	32aJJJ	[[
!!LO:LB:g=z
=52	=52	=52
*	*^	*
4.ryy	8a' 8ccn'L)	4.d^	f
.	8gn' 8b'	.	.
.	8f#' 8a'J	.	.
*	*v	*v	*
=53	=53	=53
4.ryy	(32c#LLL	p <
.	32dJJJ	.
.	32c#LLL<	.
.	32dJJJ	.
.	32f#LLL	.
.	32gJJJ	.
.	32f#LLL<	.
.	32gJJJ	.
.	32g#LLL	.
.	32aJJJ	.
.	32g#LLL<	.
.	32aJJJ	[[
=54	=54	=54
*	*^	*
4.ryy	8b' 8dd'L)	4.d^	f >
.	8a' 8ccn'	.	.
.	8gn 8bJ	.	]]
*	*v	*v	*
!!LO:LB:g=z
=55	=55	=55
4.ryy	(32c#LLL	p <
.	32dJJJ	.
.	32c#LLL<	.
.	32dJJJ	.
.	32f#LLL	.
.	32gJJJ	.
.	32f#LLL<	.
.	32gJJJ	.
.	32g#LLL	.
.	32aJJJ	.
.	32g#LLL<	.
.	32aJJJ	[[
=56	=56	=56
*	*^	*
4.ryy	8ccn' 8ee'L)	(4.d^	f
.	8b' 8dd'	.	.
.	8a' 8cc'J	.	.
=57	=57	=57	=57
4.ryy	8g' 8b'	4.d)	.
.	(<16gqq 16bqq	.	.
.	4f#) 4aM	.	> ]
*	*v	*v	*
!!LO:LB:g=z
=58	=58	=58
4.ryy	(32F#<LLL	p
.	32G<JJJ	.
.	32F#<LLL<	<
.	32G<JJJ	.
.	32G#<LLL	.
.	32A<JJJ	.
.	32G#<LLL<	.
.	32A<JJJ	.
.	32A#<LLL	.
.	32B<JJJ	.
.	32A#<LLL<	.
.	32B<JJJ	.
=59	=59	=59
4.r	32c#LLL	.
.	32dJJJ	.
.	32c#LLL<	.
.	32dJJJ	.
.	32d#LLL	.
.	32eJJJ	.
.	32d#LLL<	.
.	32eJJJ	.
.	32f#LLL	.
.	32gJJJ	.
.	32f#LLL<	.
.	32gJJJ)	.
=60	=60	=60
(8cL	32r	.
.	(32eLLL>	f
.	32ee	.
.	32ddJJJ	.
8d')	32ccLLL	.
.	32b	.
.	32a	.
.	32gJJJ	.
8D'J	32f#LLL	.
.	32e	.
.	32d	.
.	32aJJJ)	.
!!LO:LB:g=z
=61	=61	=61
([4GG	32r	.
.	(32gLLL	.
.	32f#	.
.	32eJJJ	.
.	32dLLL	.
.	32c	.
.	32B	.
.	32AJJJ	.
32GGLLL]	8G')	.
32BB	.	.
32D	.	.
32GJJJ)	.	.
=62	=62	=62
4.ryy	(32F#<LLL	p
.	32G<JJJ	.
.	32F#<LLL<	<
.	32G<JJJ	.
.	32G#<LLL	.
.	32A<JJJ	.
.	32G#<LLL<	.
.	32A<JJJ	.
.	32A#<LLL	.
.	32B<JJJ	.
.	32A#<LLL<	.
.	32B<JJJ	.
=63	=63	=63
4.ryy	32c#LLL	.
.	32dJJJ	.
.	32c#LLL<	.
.	32dJJJ	.
.	32d#LLL	.
.	32eJJJ	.
.	32d#LLL<	.
.	32eJJJ	.
.	32f#LLL	.
.	32gJJJ	.
.	32f#LLL<	.
.	32gJJJ)	.
!!LO:LB:g=z
=64	=64	=64
(8cL	32r	f
.	(32eLLL>	.
.	32ee	.
.	32ddJJJ	.
8d')	32ccLLL	.
.	32b	.
.	32a	.
.	32gJJJ	.
8D'J	32f#LLL	.
.	32e	.
.	32d	.
.	32aJJJ	.
=65	=65	=65
(32GGLLL	8g')	.
32BB	.	.
32D	.	.
32GJJJ)	.	.
8r	(32ggLLL	.
.	32bb	.
.	32gg	.
.	32ddJJJ	.
8r	32bLLL	.
.	32gg	.
.	32dd	.
.	32bJJJ	.
!!LO:LB:g=z
=66	=66	=66
(32GGLLL	8g')	>
32BB	.	.
32D	.	.
32GJJJ)	.	.
8r	(32ddLLL	.
.	32gg	.
.	32dd	.
.	32bJJJ	.
8r	32gLLL<	.
.	32dd	.
.	32b	.
.	32gJJJ	.
=67	=67	=67
(32GGLLL	8d')	.
32BB	.	.
32D	.	.
32GJJJ)	.	.
8r	(32gLLL	.
.	32b	.
.	32g	.
.	32dJJJ	.
8r	32BLLL	.
.	32g	.
.	32d	.
.	32BJJJ	p
=68	=68	=68
4.ryy	4GG<^<)	.
.	8rD<	.
==:|!	==:|!	==:|!
*-	*-	*-
!!!RDF**kern: > = above
!!!RDF**kern: < = below
!!!RDF**dynam: > = dim.
!!!PTL: Domenico Scarlatti: Opere complete per clavicembalo
!!!PED: Longo, Alessandro
!!!PPR: Ricordi
!!!PPP: Milan
!!!PDT: 1906-1913
!!!ENC: Craig Stuart Sapp
!!!END: 2004/11/03
!!!EED: Craig Stuart Sapp
!!!EEV: 2021/06/05
